modules/feathericon/icons/forward.svg

<?xml version="1.0" encoding="UTF-8"?>
<svg width="24px" height="24px" viewBox="0 0 24 24" version="1.1" xmlns="http://www.w3.org/2000/svg" xmlns:xlink="http://www.w3.org/1999/xlink">
    <!-- Generator: sketchtool 52.2 (67145) - http://www.bohemiancoding.com/sketch -->
    <title>forward</title>
    <desc>Created with sketchtool.</desc>
    <g id="media-player" stroke="none" stroke-width="1" fill="none" fill-rule="evenodd">
        <g id="forward" fill="#000000" fill-rule="nonzero">
            <path d="M12,11.9994698 L12,7.65116756 C12,7.54060804 12.0246513,7.43186966 12.07163,7.33520318 C12.2244154,7.02082217 12.5714116,6.90742807 12.8466676,7.08193038 L19.7065131,11.4308222 C19.7997101,11.4899057 19.8765354,11.577651 19.9282659,11.684095 C20.0810513,11.9984761 19.9817692,12.3947943 19.7065131,12.5692966 L12.8466676,16.9181884 C12.7620314,16.9718448 12.6668255,17 12.5700252,17 C12.255209,17 12,16.7085156 12,16.3489513 L12,11.9994701 C11.9999999,12.2283402 11.8941377,12.4503494 11.7065131,12.5692966 L4.84666762,16.9181884 C4.76203135,16.9718448 4.66682555,17 4.57002524,17 C4.25520899,17 4,16.7085156 4,16.3489513 L4,7.65116756 C4,7.54060804 4.02465131,7.43186966 4.07163005,7.33520318 C4.22441541,7.02082217 4.57141155,6.90742807 4.84666762,7.08193038 L11.7065131,11.4308222 C11.7997101,11.4899057 11.8765354,11.577651 11.9282659,11.684095 C11.9769072,11.7841824 12.0000001,11.8925745 12,11.99947 Z" id="Shape"></path>
        </g>
    </g>
</svg>

<svg width="24" height="24" viewBox="0 0 24 24" xmlns="http://www.w3.org/2000/svg"><path d="M12 12V7.65c0-.11.025-.22.072-.316.152-.314.5-.428.775-.253l6.86 4.349c.093.059.17.147.221.253.153.314.054.71-.221.885l-6.86 4.35a.516.516 0 0 1-.277.081c-.315 0-.57-.291-.57-.651v-4.35c0 .23-.106.451-.293.57l-6.86 4.35A.516.516 0 0 1 4.57 17c-.315 0-.57-.291-.57-.651V7.651c0-.11.025-.22.072-.316.152-.314.5-.428.775-.253l6.86 4.349c.093.059.17.147.221.253.049.1.072.209.072.315z" fill="#000" fill-rule="nonzero"/></svg>
